weblate/static/state/admin.svg

<svg width="14" height="14" version="1.1" viewBox="0 0 14 14" xmlns="http://www.w3.org/2000/svg"><g transform="translate(-215,-228)" fill="#2a3744"><g transform="translate(215,228)"><path d="m0 1 3.5 5 3.5-6 3.5 6 3.5-5-1 9h-12zm13 12c0 0.6-0.4 1-1 1h-10c-0.6 0-1-0.4-1-1v-1h12z"/></g></g></svg>

<svg xmlns="http://www.w3.org/2000/svg" xmlns:xlink="http://www.w3.org/1999/xlink" width="14" height="14" version="1.1" viewBox="0 0 14 14"><title>A835883E-E974-4F7A-A25A-051062966479</title><desc>Created with sketchtool.</desc><g id="App-UI" fill="none" fill-rule="evenodd" stroke="none" stroke-width="1"><g id="Overview" fill="#2A3744" fill-rule="nonzero" transform="translate(-215.000000, -228.000000)"><g id="MiniCrown" transform="translate(215.000000, 228.000000)"><path id="Shape" d="M0,1 L3.5,6 L7,-0 L10.5,6 L14,1 L13,10 L1,10 L0,1 Z M13,13 C13,13.6 12.6,14 12,14 L2,14 C1.4,14 1,13.6 1,13 L1,12 L13,12 L13,13 Z"/></g></g></g></svg>
